!!!!SEGMENT: pl-kk--kk-i-38--002_lasso-orlando-di--exaudi-domine-vocem-meam.krn
!!!cenid: 16xx:1252
!!!COM: Lasso, Orlando di
!!!COM-rism: pe506
!!!CDT: ~1532-1594/06/14
!!!CNT: French-Flemish
!!!OTL: Exaudi Domine vocem meam
!!!PDT:
!!!AGN: Sacred
!!!SMS-siglum: PL-Kk
!!!SMS-shelfmark: Kk.I.38
!!!NIFC-rismID: 1001154369
!!!URL-scan: http://repozytorium.nifc.pl/skany/pl-kk-nut--i-38
!!!ONB-nifc: Lib. 1. Fol. 6. 2da parte (jeśli występuje), należy do utworu tytułowego
!!!SMS-variant:
!!!SMS-altvar:
**kern	**text
*I"Baſso Ripieno.	*
*clefF4	*
*k[b-]	*
*M2/1	*
*met(c|)	*
=1-	=1-
!LO:TX:t=P:problem:kreska pseudotaktowa	!
!LO:TX:t=P:problem:po znakach przykluczowych akord G B- d	!
!LO:TX:t=P:problem:w źródle znaki przykluczowe B- i BB-, jeden nad drugim	!
!LO:TX:a:i:t=Lib&colon; 1. Fol. 6.	!
1r	.
0G	Ex-
=2-	=2-
0C	-au-
=3-	=3-
!LO:TX:t=P:problem:kreska pseudotaktowa	!
1GG	-di
=4-	=4-
1.D	Do-
*2\right	*
2D\	-mi-
=5-	=5-
!LO:TX:t=P:problem:kreska pseudotaktowa	!
0C	-ne
=6-	=6-
1F	Vo-
1BB-	-cem
=7-	=7-
0F	me-
=8-	=8-
!LO:TX:t=P:problem:kreska pseudotaktowa	!
0BB-	-am,
=9-	=9-
!LO:TX:t=P:problem:kreska pseudotaktowa	!
0r	.
=10-	=10-
1BB-	quâ
2BB-/	cla-
1F\	-ma-
=11-	=11-
.	.
2BB-/	-vi
1D	ad
=12-	=12-
!LO:TX:t=P:problem:kreska pseudotaktowa	!
0C	Te
=13-	=13-
1r	.
2r	.
*	*ij
1D\	quâ
=14-	=14-
.	.
!LO:TX:t=P:problem:kreska pseudotaktowa	!
2D/	cla-
2A\	-ma-
2F#X\	-vi
=15-	=15-
*lig	*
1G	ad
1C	.
*Xlig	*
=16-	=16-
!LO:TX:t=P:problem:kreska pseudotaktowa	!
1D	Te
*	*Xij
2r	.
1G\	mi-
=17-	=17-
!LO:TX:t=P:problem:kreska pseudotaktowa	!
2GG/	-ſe-
2C/	-re-
!LO:TX:t=P:problem:kreska pseudotaktowa	!
!LO:SIC:v:t=custos G	!
2C/	-re
!LO:LB:g=original	!
=18-	=18-
2.G\	me-
4F\ny	.
1E-X	.
=19-	=19-
!LO:TX:t=P:problem:kreska pseudotaktowa	!
0D	-i.
=20-	=20-
0r	.
=21-	=21-
1.AA	mi-
2AA/	-ſe-
=22-	=22-
2AA/	-re-
!LO:TX:t=P:problem:kreska pseudotaktowa	!
2AA/	-re
1BB-	me-
=23-	=23-
0.AA	-i.
=24-	=24-
!LO:TX:t=P:problem:kreska pseudotaktowa	!
2rBB	.
2D\	et
=25-	=25-
2GG/	ex-
2.G\	-au-
8F#X\L	.
8E\Jny	.
!LO:TX:t=P:problem:kreska pseudotaktowa	!
2F#\	.
=26-	=26-
1G,>	-di
!LO:TX:t=P:problem:kreska pseudotaktowa	!
1C	me
=27-	=27-
0r	.
=28-	=28-
*	*ij
1C	et
!LO:TX:t=P:problem:kreska pseudotaktowa	!
1D	ex-
=29-	=29-
1E	-au-
1Fny	-di
=30-	=30-
!LO:TX:t=P:problem:kreska pseudotaktowa	!
1BB-	me
*	*Xij
0r	.
=31-	=31-
1AA	et
=32-	=32-
!LO:TX:t=P:problem:kreska pseudotaktowa	!
1BB-	ex-
1C	-au-
=33-	=33-
1D	-di
!LO:TX:t=P:problem:kreska pseudotaktowa	!
1GG	me
=34-	=34-
00r	.
=35-	=35-
.	.
=36-	=36-
!LO:TX:t=P:problem:kreska pseudotaktowa	!
0r	.
=37-	=37-
2r	.
1G	Ti-
!LO:TX:t=P:problem:kreska pseudotaktowa	!
2F\	-bi
!LO:LB:g=original	!
=38-	=38-
1E-X	di-
2D,>\	-xit
2D\	Cor
=39-	=39-
2G\	me-
!LO:TX:t=P:problem:kreska pseudotaktowa	!
2C,</	-um:
00r	.
=40-	=40-
.	.
=41-	=41-
2r	.
1G\	Ti-
=42-	=42-
2F\	-bi
1E-X	di-
=43-	=43-
2.D\	-xit
4E\ny	.
2F\	.
!LO:TX:t=P:problem:kreska pseudotaktowa	!
2C/	cor
=44-	=44-
1D	me-
!LO:TX:t=P:problem:kreska pseudotaktowa	!
1AA	-um;
=45-	=45-
2r	.
1D	ex-
2D\	-qui-
=46-	=46-
2D\	-si-
!LO:TX:t=P:problem:kreska pseudotaktowa	!
2E\	-vit
2F\	Te
2.G\	fa-
=47-	=47-
4G\	-ci-
!LO:TX:t=P:problem:kreska pseudotaktowa	!
2E\	-es
2.F\	me-
4E\	.
=48-	=48-
4D/	.
4C/	.
2D/	.
2.C/	.
4BB-/	.
=49-	=49-
!LO:TX:t=P:problem:kreska pseudotaktowa	!
1AA	-a,
00r	.
=50-	=50-
.	.
=51-	=51-
!LO:N:vis=0	!
1r	.
=52-	=52-
1ryy	.
1BB-	Fa-
=53-	=53-
2BB-/	-ci-
!LO:TX:t=P:problem:kreska pseudotaktowa	!
2BB-/	-em
!LO:LB:g=original	!
1F	tu-
=54-	=54-
!LO:TX:t=P:problem:kreska pseudotaktowa	!
1BB-	-am
1.AA	Do-
=55-	=55-
2BB-/	-mi-
2F\	-ne
2C/	re-
=56-	=56-
1D	-qui-
!LO:TX:t=P:problem:kreska pseudotaktowa	!
1C	-ram,
=57-	=57-
00r	.
=58-	=58-
.	.
=59-	=59-
00r	.
=60-	=60-
.	.
=61-	=61-
1G	Fa-
2G\	-ci-
2GG/	-em
=62-	=62-
1D	tu-
!LO:TX:t=P:problem:kreska pseudotaktowa	!
1AA	-am
=63-	=63-
1.D	Do-
2BB-/	-mi-
=64-	=64-
2BB-/	-ne
4B-\	re-
4A\	.
2G\	.
2F#X\	.
=65-	=65-
0G	-qui-
=66-	=66-
!LO:TX:t=P:problem:podwójna kreska pseudotaktowa	!
0D;>	-ram.
=67||-	=67||-
*k[b-]	*
*M2/1	*
*met(c|)	*
!LO:TX:t=P:problem:w źródle znaki przykluczowe B- i BB-, jeden nad drugim	!
!LO:TX:a:i:t=2da \nparte	!
00r	.
=68-	=68-
.	.
=69-	=69-
00r	.
=70-	=70-
.	.
=71-	=71-
!LO:TX:t=P:problem:kreska pseudotaktowa	!
1r	.
2rBB	.
1GG/	Ne
=72-	=72-
2BB-/	a-
!LO:TX:t=P:problem:kreska pseudotaktowa	!
!LO:SIC:v:t=custos D	!
1C	-ver-
!LO:LB:g=original	!
=73-	=73-
2D,<\	-tas
2.F\	Fa-
4F\	-ci-
!LO:TX:t=P:problem:kreska pseudotaktowa	!
2D\	-em
=74-	=74-
2C/	tu-
2E-X\	-am
1D	à
=75-	=75-
!LO:TX:t=P:problem:kreska pseudotaktowa	!
1GG	me.
0r	.
=76-	=76-
1.G	Ne
=77-	=77-
.	.
2E-X\	a-
!LO:TX:t=P:problem:kreska pseudotaktowa	!
1D	-ver-
=78-	=78-
2.C/	-tas
8BB-/L	.
8AA/J	.
2GG,</	.
2G\	fa-
=79-	=79-
2F\	-ci-
2F\	-em
!LO:TX:t=P:problem:kreska pseudotaktowa	!
1D	tu-
=80-	=80-
2C#X,</	-am
2D\	à
!LO:TX:t=P:problem:kreska pseudotaktowa	!
1AA	me
=81-	=81-
2r	.
2D/	Fa-
2BB-/	-ci-
2GG/	-em
=82-	=82-
2E-X\	tu-
2E-\	-am
1Cny	à
=83-	=83-
!LO:TX:t=P:problem:kreska pseudotaktowa	!
1BB-	me.
0r	.
=84-	=84-
!LO:TX:t=P:problem:kreska pseudotaktowa	!
1r	.
=85-	=85-
1G	ne
!LO:TX:t=P:problem:kreska pseudotaktowa	!
1F	de-
!LO:LB:g=original	!
=86-	=86-
1E-X	-cli-
!LO:TX:t=P:problem:kreska pseudotaktowa	!
1D	-nes
=87-	=87-
0r	.
=88-	=88-
!LO:TX:t=P:problem:kreska pseudotaktowa	!
1r	.
*	*ij
2G\	ne
2F\	de-
=89-	=89-
2E-X\	-cli-
4D,<\	-nes
*	*Xij
!LO:TX:t=P:problem:kreska pseudotaktowa	!
4D\	in
2C/	i-
4GG/	-ra
4GG/	a
=90-	=90-
4D/	ser-
4AA/	-vo
!LO:TX:t=P:problem:kreska pseudotaktowa	!
2C\	tu-
2GG,</	-o,
2D\	a
=91-	=91-
4E-X\	ser-
4C/	-vo
!LO:TX:t=P:problem:kreska pseudotaktowa	!
2G\	Tu-
2C,</	-o.
*	*ij
2C/	a
=92-	=92-
2F\	ser-
2BB-/	-vo
2F\	Tu-
!LO:TX:t=P:problem:kreska pseudotaktowa	!
2C/	-o.
*	*Xij
=93-	=93-
0r	.
=94-	=94-
2B-\	ne
2A\	de-
2G\	-cli-
4F\,<	-nes
!LO:TX:t=P:problem:kreska pseudotaktowa	!
4F\	in
=95-	=95-
2C/	i-
4GG,</	-ra
!LO:TX:t=P:problem:kreska pseudotaktowa	!
!LO:SIC:v:t=custos F	!
4G\	à
!LO:LB:g=original	!
4F\	Ser-
4D\	-vo
2F\	tu-
=96-	=96-
!LO:TX:t=P:problem:kreska pseudotaktowa	!
1BB-	-o.
2r	.
2C/	ad-
=97-	=97-
1.G	-ju-
!LO:TX:t=P:problem:kreska pseudotaktowa	!
2G\	-tor
=98-	=98-
2C/	me-
2F\	-us
1C	e-
=99-	=99-
!LO:TX:t=P:problem:kreska pseudotaktowa	!
1D	-ſto,
2r	.
1G\	nè
=100-	=100-
2F\	de-
2A\	-re-
!LO:TX:t=P:problem:kreska pseudotaktowa	!
2B-\	-lin-
=101-	=101-
1G	-quas
2.F\	.
8E\Lny	.
8D\J	.
=102-	=102-
!LO:TX:t=P:problem:kreska pseudotaktowa	!
1C	me.
00r	.
=103-	=103-
.	.
=104-	=104-
1.BB-	ne
=105-	=105-
!LO:TX:t=P:problem:kreska pseudotaktowa	!
2AA/	de-
2C/	-re-
2D\	-lin-
=106-	=106-
1BB-	-quas
!LO:TX:t=P:problem:kreska pseudotaktowa	!
1AA	me
=107-	=107-
0r	.
=108-	=108-
!LO:TX:t=P:problem:kreska pseudotaktowa	!
1r	.
1BB-	ne-
=109-	=109-
2E-X\	-que
2D\	de-
2.E-\	-ſpi-
!LO:TX:t=P:problem:kreska pseudotaktowa	!
4E-\	-ci-
!LO:LB:g=original	!
=110-	=110-
2D,>/	-as
2GG/	me
*lig	*
1D	De-
=111-	=111-
1E-	.
*Xlig	*
*lig	*
1D	-us.
=112-	=112-
!LO:TX:t=P:problem:kreska pseudotaktowa	!
1GG	.
*Xlig	*
1r	.
=113-	=113-
1D	ne-
2G\	-que
!LO:TX:t=P:problem:kreska pseudotaktowa	!
2C/	de-
=114-	=114-
2.D/	-ſpi-
4D/	-ci-
2AA,</	-as
!LO:TX:t=P:problem:kreska pseudotaktowa	!
2AA/	me
=115-	=115-
1D	DE-
!LO:TX:t=P:problem:kreska pseudotaktowa	!
1C	-(us)
=116-	=116-
1.BB-	Sa-
2BB-/	-lu-
=117-	=117-
2F\	-ta-
!LO:TX:t=P:problem:kreska pseudotaktowa	!
2BB-/	-ris
*lig	*
1F	me-
=118-	=118-
1G	.
*Xlig	*
!LO:TX:t=P:problem:kreska pseudotaktowa	!
1D	-us,
=119-	=119-
1r	.
1.A	Sa-
=120-	=120-
2AA/	-lu-
1D	-ta-
=121-	=121-
0BB-	-ris
=122-	=122-
*lig	*
1F	me-
1G	.
*Xlig	*
=123-	=123-
!LO:TX:t=P:problem:kreska pseudotaktowa	!
0D	-us.
=124-	=124-
2r	.
*	*ij
1G	Sa-
2G\	-lu-
=125-	=125-
2.E-X\	-ta-
4D\	.
2C/	.
!LO:TX:t=P:problem:♮ below	!
2BBn/	-ris
=126-	=126-
0C	me-
=127-	=127-
0GG;<	-us.
*	*Xij
=-	=-
*-	*-
!!!RDF**kern: > = above
!!!RDF**kern: < = below
!!!EED: Antoni Szymański
!!!EST: 2021-07-28
!!!ENC: Katarzyna Serwa
!!!END: 2021-07-01
